icons/lines/html-three.svg

<svg xmlns="http://www.w3.org/2000/svg" width="24" height="24" viewBox="0 0 24 24" fill="none" stroke="currentColor" stroke-width="2" stroke-linecap="round" stroke-linejoin="round" >
  <path d="M4.09961 2H19.8996C20.4996 2 20.9996 2.5 20.8996 3.1L19.0996 19.3C19.0996 19.7 18.7996 20 18.3996 20.2L12.2996 21.9C12.0996 22 11.8996 22 11.7996 21.9L5.69961 20.2C5.29961 20.1 4.99961 19.8 4.99961 19.3L3.09961 3.1C3.09961 2.5 3.49961 2 4.09961 2Z" stroke-miterlimit="10"/>
  <path d="M7.5 7H16.5L15.5 16L12 17L8.5 16L8 14" stroke-miterlimit="10"/>
  <path d="M8 11H16.1" stroke-miterlimit="10"/>
  </svg>

<svg xmlns="http://www.w3.org/2000/svg" width="24" height="24" viewBox="0 0 24 24" fill="none" stroke="currentColor" stroke-width="2" stroke-linecap="round" stroke-linejoin="round">
  <path d="M19.9 2c.6 0 1.1.5 1 1.1l-1.8 16.2c0 .4-.3.7-.7.9l-6.1 1.7c-.2.1-.4.1-.5 0l-6.1-1.7c-.4-.1-.7-.4-.7-.9L3.1 3.1c0-.6.4-1.1 1-1.1z" />
  <path d="M7.5 7h9l-1 9-3.5 1-3.5-1-.5-2" />
  <path d="M8 11h8.1" />
</svg>
